img/question_icon.svg

<svg width="16" height="16" viewBox="0 0 16 16" fill="none" xmlns="http://www.w3.org/2000/svg">
<mask id="mask0_1201_51669" style="mask-type:alpha" maskUnits="userSpaceOnUse" x="1" y="1" width="14" height="14">
<path fill-rule="evenodd" clip-rule="evenodd" d="M1.33325 1.3335H14.6665V14.6668H1.33325V1.3335Z" fill="white"/>
</mask>
<g mask="url(#mask0_1201_51669)">
<path fill-rule="evenodd" clip-rule="evenodd" d="M5.10925 2.3335C3.42325 2.3335 2.33325 3.48883 2.33325 5.2775V10.7228C2.33325 12.5115 3.42325 13.6668 5.10925 13.6668H10.8879C12.5759 13.6668 13.6666 12.5115 13.6666 10.7228V5.2775C13.6666 3.48883 12.5759 2.3335 10.8893 2.3335H5.10925ZM10.8879 14.6668H5.10925C2.85059 14.6668 1.33325 13.0815 1.33325 10.7228V5.2775C1.33325 2.91883 2.85059 1.3335 5.10925 1.3335H10.8893C13.1486 1.3335 14.6666 2.91883 14.6666 5.2775V10.7228C14.6666 13.0815 13.1486 14.6668 10.8879 14.6668Z" fill="#FC6733"/>
</g>
<path d="M8.87996 10.7307C8.87996 11.1484 8.54125 11.4871 8.12338 11.4871C7.70565 11.4871 7.36694 11.1484 7.36694 10.7307C7.36694 10.3128 7.70566 9.97412 8.12338 9.97412C8.54126 9.97412 8.87996 10.3128 8.87996 10.7307Z" fill="#FC6733"/>
<path d="M8.12338 9.3768C7.8048 9.3768 7.56592 9.11794 7.56592 8.81935C7.56592 8.16235 7.96407 7.58502 8.58125 7.32617C9.01925 7.14702 9.27814 6.70902 9.27814 6.25115C9.25828 5.65384 8.76054 5.15611 8.16327 5.13627C7.84469 5.13627 7.56596 5.23585 7.32709 5.45485C7.10808 5.67386 6.98865 5.95258 6.98865 6.27116C6.98865 6.58974 6.72979 6.82861 6.43119 6.82861C6.13248 6.82847 5.85376 6.56961 5.85376 6.27102C5.85376 5.65387 6.09263 5.0764 6.53063 4.6384C6.96863 4.2004 7.54596 3.9814 8.18309 4.00124C9.35769 4.04109 10.3531 5.01657 10.393 6.21115C10.4129 7.14687 9.8754 7.98306 9.01923 8.36133C8.82009 8.4409 8.6808 8.62019 8.6808 8.8192C8.68094 9.11806 8.44193 9.3768 8.12334 9.3768L8.12338 9.3768Z" fill="#FC6733"/>
</svg>

<svg width="16" height="16" viewBox="0 0 16 16" fill="none" xmlns="http://www.w3.org/2000/svg"><mask id="a" style="mask-type:alpha" maskUnits="userSpaceOnUse" x="1" y="1" width="14" height="14"><path fill-rule="evenodd" clip-rule="evenodd" d="M1.333 1.333h13.333v13.334H1.333V1.334z" fill="#fff"/></mask><g mask="url(#a)"><path fill-rule="evenodd" clip-rule="evenodd" d="M5.11 2.333c-1.687 0-2.777 1.156-2.777 2.944v5.446c0 1.788 1.09 2.944 2.776 2.944h5.779c1.688 0 2.779-1.155 2.779-2.944V5.277c0-1.788-1.091-2.944-2.778-2.944H5.11zm5.778 12.334H5.109c-2.258 0-3.776-1.585-3.776-3.944V5.277c0-2.358 1.518-3.944 3.776-3.944h5.78c2.26 0 3.778 1.586 3.778 3.944v5.446c0 2.358-1.518 3.944-3.78 3.944z" fill="#FC6733"/></g><path d="M8.88 10.73a.757.757 0 1 1-1.513 0 .757.757 0 0 1 1.513 0zm-.757-1.353a.556.556 0 0 1-.557-.558c0-.657.398-1.234 1.015-1.493.438-.179.697-.617.697-1.075a1.168 1.168 0 0 0-1.115-1.115c-.318 0-.597.1-.836.319a1.128 1.128 0 0 0-.338.816.556.556 0 0 1-.558.558c-.299 0-.577-.26-.577-.558 0-.617.239-1.195.677-1.633a2.19 2.19 0 0 1 1.652-.637c1.175.04 2.17 1.016 2.21 2.21a2.285 2.285 0 0 1-1.374 2.15c-.199.08-.338.26-.338.458a.556.556 0 0 1-.558.558z" fill="#FC6733"/></svg>
